_includes/icons/ios-wrench.svg

<svg fill="#666" height="50" viewBox="0 0 50 50" width="50" xmlns="http://www.w3.org/2000/svg"><path d="m36 2c-6.617187 0-12 5.382813-12 12 0 1.515625.332031 2.949219.84375 4.28125l-21.40625 21.40625c-1.894531 1.894531-1.894531 4.980469 0 6.875s4.980469 1.894531 6.875 0l21.40625-21.40625c1.332031.511719 2.765625.84375 4.28125.84375 6.617188 0 12-5.382812 12-12 0-1.316406-.207031-2.570312-.59375-3.75l-.53125-1.5625-1.125 1.15625-7 6.96875-3.96875-1.59375-1.59375-3.96875 6.96875-7 1.15625-1.125-1.5625-.53125c-1.179687-.386719-2.433594-.59375-3.75-.59375zm0 2c.480469 0 .914063.152344 1.375.21875l-6.09375 6.0625-.46875.46875 2.25 5.625.15625.40625.40625.15625 5.625 2.25.46875-.46875 6.0625-6.09375c.066406.460938.21875.894531.21875 1.375 0 5.535156-4.464844 10-10 10-1.472656 0-2.863281-.332031-4.125-.90625l-.625-.28125-22.34375 22.34375c-1.128906 1.128906-2.933594 1.128906-4.0625 0s-1.128906-2.933594 0-4.0625l22.34375-22.34375-.28125-.625c-.574219-1.261719-.90625-2.652344-.90625-4.125 0-5.535156 4.464844-10 10-10z"/></svg>

<svg xmlns="http://www.w3.org/2000/svg" viewBox="0 0 50 50" width="50" height="50" fill="#666"><path d="M 36 2 C 29.382813 2 24 7.382813 24 14 C 24 15.515625 24.332031 16.949219 24.84375 18.28125 L 3.4375 39.6875 C 1.542969 41.582031 1.542969 44.667969 3.4375 46.5625 C 5.332031 48.457031 8.417969 48.457031 10.3125 46.5625 L 31.71875 25.15625 C 33.050781 25.667969 34.484375 26 36 26 C 42.617188 26 48 20.617188 48 14 C 48 12.683594 47.792969 11.429688 47.40625 10.25 L 46.875 8.6875 L 45.75 9.84375 L 38.75 16.8125 L 34.78125 15.21875 L 33.1875 11.25 L 40.15625 4.25 L 41.3125 3.125 L 39.75 2.59375 C 38.570313 2.207031 37.316406 2 36 2 Z M 36 4 C 36.480469 4 36.914063 4.152344 37.375 4.21875 L 31.28125 10.28125 L 30.8125 10.75 L 33.0625 16.375 L 33.21875 16.78125 L 33.625 16.9375 L 39.25 19.1875 L 39.71875 18.71875 L 45.78125 12.625 C 45.847656 13.085938 46 13.519531 46 14 C 46 19.535156 41.535156 24 36 24 C 34.527344 24 33.136719 23.667969 31.875 23.09375 L 31.25 22.8125 L 8.90625 45.15625 C 7.777344 46.285156 5.972656 46.285156 4.84375 45.15625 C 3.714844 44.027344 3.714844 42.222656 4.84375 41.09375 L 27.1875 18.75 L 26.90625 18.125 C 26.332031 16.863281 26 15.472656 26 14 C 26 8.464844 30.464844 4 36 4 Z"/></svg>
